lib/brands/icons/django.svg

<svg xmlns="http://www.w3.org/2000/svg" fill="none" aria-hidden="true" viewBox="0 0 48 48"><g id="django-Icon"><g id="Group"><path id="Vector" fill="#092E20" d="M38.0625 6H9.9375C7.76288 6 6 7.76288 6 9.9375V38.0625C6 40.2371 7.76288 42 9.9375 42H38.0625C40.2371 42 42 40.2371 42 38.0625V9.9375C42 7.76288 40.2371 6 38.0625 6Z"/><path id="Vector_2" fill="#FFFFFD" d="M32.2091 19.2466V28.5597C32.2091 31.7686 31.9743 33.3077 31.27 34.6382C30.6177 35.9167 29.7567 36.7252 27.9828 37.6123L24.2522 35.8383C26.0262 35.0036 26.8871 34.2733 27.4349 33.1511C28.0089 32.0034 28.1917 30.6728 28.1917 27.1772V19.2466H32.2091ZM25.8179 13.0423V31.6383C23.7569 32.0296 22.2438 32.1861 20.6004 32.1861C15.6957 32.1861 13.1392 29.9688 13.1392 25.7163C13.1392 21.6205 15.8524 18.9598 20.0524 18.9598C20.7046 18.9598 21.2002 19.0118 21.8003 19.1683V13.0423H25.8179ZM20.4439 22.1944C18.409 22.1944 17.235 23.4467 17.235 25.6379C17.235 27.7773 18.3568 28.9512 20.4178 28.9512C20.8611 28.9512 21.2264 28.9251 21.8003 28.847V22.4029C21.3308 22.2466 20.9395 22.1944 20.4439 22.1944ZM32.2091 13.0637V17.1856H28.1917V13.0637H32.2091Z"/></g></g></svg>

<svg xmlns="http://www.w3.org/2000/svg" fill="none" aria-hidden="true" viewBox="0 0 48 48"><path fill="#092E20" d="M38.063 6H9.936A3.938 3.938 0 0 0 6 9.938v28.124A3.938 3.938 0 0 0 9.938 42h28.124A3.938 3.938 0 0 0 42 38.062V9.939A3.938 3.938 0 0 0 38.062 6Z"/><path fill="#FFFFFD" d="M32.21 19.247v9.313c0 3.209-.236 4.748-.94 6.078-.652 1.279-1.513 2.087-3.287 2.974l-3.73-1.774c1.773-.834 2.634-1.565 3.182-2.687.574-1.148.757-2.478.757-5.974v-7.93h4.017Zm-6.392-6.205v18.596c-2.061.392-3.574.548-5.218.548-4.904 0-7.46-2.217-7.46-6.47 0-4.096 2.712-6.756 6.912-6.756.653 0 1.148.052 1.748.208v-6.126h4.018Zm-5.374 9.152c-2.035 0-3.209 1.253-3.209 3.444 0 2.14 1.122 3.313 3.183 3.313.443 0 .808-.026 1.382-.104v-6.444a3.992 3.992 0 0 0-1.356-.209Zm11.765-9.13v4.122h-4.017v-4.122h4.017Z"/></svg>
